src/assets/icons/microchip-ai.svg

<svg width="14" height="14" viewBox="0 0 14 14" fill="none" xmlns="http://www.w3.org/2000/svg">
<g id="microchip-ai">
<g clip-path="url(#clip0_295_4713)">
<path id="Vector" fill-rule="evenodd" clip-rule="evenodd" d="M4.4 0.6C4.4 0.268629 4.13137 0 3.8 0C3.46863 0 3.2 0.268629 3.2 0.6V1.6H3C2.2268 1.6 1.6 2.2268 1.6 3V3.2H0.6C0.268629 3.2 0 3.46863 0 3.8C0 4.13137 0.268629 4.4 0.6 4.4H1.6V6.4H0.6C0.268629 6.4 0 6.66863 0 7C0 7.33137 0.268629 7.6 0.6 7.6H1.6V9.6H0.6C0.268629 9.6 0 9.86863 0 10.2C0 10.5314 0.268629 10.8 0.6 10.8H1.6V11C1.6 11.7732 2.2268 12.4 3 12.4H3.2V13.4C3.2 13.7314 3.46863 14 3.8 14C4.13137 14 4.4 13.7314 4.4 13.4V12.4H6.4V13.4C6.4 13.7314 6.66863 14 7 14C7.33137 14 7.6 13.7314 7.6 13.4V12.4H9.6V13.4C9.6 13.7314 9.86863 14 10.2 14C10.5314 14 10.8 13.7314 10.8 13.4V12.4H11C11.7732 12.4 12.4 11.7732 12.4 11V10.8H13.4C13.7314 10.8 14 10.5314 14 10.2C14 9.86863 13.7314 9.6 13.4 9.6H12.4V7.6H13.4C13.7314 7.6 14 7.33137 14 7C14 6.66863 13.7314 6.4 13.4 6.4H12.4V4.4H13.4C13.7314 4.4 14 4.13137 14 3.8C14 3.46863 13.7314 3.2 13.4 3.2H12.4V3C12.4 2.2268 11.7732 1.6 11 1.6H10.8V0.6C10.8 0.268629 10.5314 0 10.2 0C9.86863 0 9.6 0.268629 9.6 0.6V1.6H7.6V0.6C7.6 0.268629 7.33137 0 7 0C6.66863 0 6.4 0.268629 6.4 0.6V1.6H4.4V0.6ZM2.8 3C2.8 2.88954 2.88954 2.8 3 2.8H3.8H7H10.2H11C11.1105 2.8 11.2 2.88954 11.2 3V3.8V7V10.2V11C11.2 11.1105 11.1105 11.2 11 11.2H10.2H7H3.8H3C2.88954 11.2 2.8 11.1105 2.8 11V10.2V3.8V3ZM6.8389 9.20246L6.61883 8.58496H4.99734L4.77726 9.20247C4.66602 9.51461 4.3228 9.67746 4.01066 9.56622C3.69852 9.45497 3.53566 9.11175 3.64691 8.79961L5.00692 4.9836L5.00963 4.97597L5.01255 4.96843C5.13421 4.65416 5.42525 4.39902 5.80809 4.39902C6.19094 4.39902 6.48198 4.65416 6.60363 4.96843L6.60655 4.97598L6.60927 4.9836L7.96926 8.79962C8.0805 9.11176 7.91764 9.45498 7.6055 9.56622C7.29336 9.67746 6.95014 9.5146 6.8389 9.20246ZM5.80809 6.3101L6.19116 7.38496H5.42501L5.80809 6.3101ZM8.8 4.99902C8.8 4.66765 9.06863 4.39902 9.4 4.39902C9.73137 4.39902 10 4.66765 10 4.99902V9.00107C10 9.33245 9.73137 9.60107 9.4 9.60107C9.06863 9.60107 8.8 9.33245 8.8 9.00107V4.99902Z" fill="black"/>
</g>
</g>
<defs>
<clipPath id="clip0_295_4713">
<rect width="14" height="14" fill="white"/>
</clipPath>
</defs>
</svg>

<svg xmlns="http://www.w3.org/2000/svg" fill="none" viewBox="0 0 14 14"><g clip-path="url(#a)"><path fill="#000" fill-rule="evenodd" d="M4.4.6a.6.6 0 0 0-1.2 0v1H3A1.4 1.4 0 0 0 1.6 3v.2h-1a.6.6 0 0 0 0 1.2h1v2h-1a.6.6 0 0 0 0 1.2h1v2h-1a.6.6 0 0 0 0 1.2h1v.2A1.4 1.4 0 0 0 3 12.4h.2v1a.6.6 0 1 0 1.2 0v-1h2v1a.6.6 0 1 0 1.2 0v-1h2v1a.6.6 0 1 0 1.2 0v-1h.2a1.4 1.4 0 0 0 1.4-1.4v-.2h1a.6.6 0 1 0 0-1.2h-1v-2h1a.6.6 0 1 0 0-1.2h-1v-2h1a.6.6 0 1 0 0-1.2h-1V3A1.4 1.4 0 0 0 11 1.6h-.2v-1a.6.6 0 1 0-1.2 0v1h-2v-1a.6.6 0 0 0-1.2 0v1h-2zM2.8 3c0-.11.09-.2.2-.2h8c.11 0 .2.09.2.2v8a.2.2 0 0 1-.2.2H3a.2.2 0 0 1-.2-.2V3m4.039 6.202-.22-.617H4.997l-.22.617a.6.6 0 1 1-1.13-.402l1.36-3.816.003-.008.003-.008c.121-.314.412-.569.795-.569s.674.255.796.57l.003.007.002.008L7.97 8.8a.6.6 0 0 1-1.13.402M5.809 6.31l.382 1.075h-.766zM8.8 5a.6.6 0 0 1 1.2 0v4.002a.6.6 0 1 1-1.2 0z" clip-rule="evenodd"/></g><defs><clipPath id="a"><path fill="#fff" d="M0 0h14v14H0z"/></clipPath></defs></svg>
